app/assets/images/heroicons/micro/plus.svg

<svg width="16" height="16" viewBox="0 0 16 16" fill="none" xmlns="http://www.w3.org/2000/svg">
<path d="M8.75 3.75C8.75 3.33579 8.41421 3 8 3C7.58579 3 7.25 3.33579 7.25 3.75V7.25H3.75C3.33579 7.25 3 7.58579 3 8C3 8.41421 3.33579 8.75 3.75 8.75L7.25 8.75V12.25C7.25 12.6642 7.58579 13 8 13C8.41421 13 8.75 12.6642 8.75 12.25V8.75L12.25 8.75C12.6642 8.75 13 8.41421 13 8C13 7.58579 12.6642 7.25 12.25 7.25H8.75V3.75Z" fill="black"/>
</svg>

<svg xmlns="http://www.w3.org/2000/svg" viewBox="0 0 16 16" fill="currentColor" aria-hidden="true" data-slot="icon">
  <path d="M8.75 3.75a.75.75 0 0 0-1.5 0v3.5h-3.5a.75.75 0 0 0 0 1.5h3.5v3.5a.75.75 0 0 0 1.5 0v-3.5h3.5a.75.75 0 0 0 0-1.5h-3.5v-3.5Z"/>
</svg>
